build/dist/assets/images/services/service7.svg

<svg width="44" height="44" viewBox="0 0 44 44" fill="none" xmlns="http://www.w3.org/2000/svg">
<g clip-path="url(#clip0_413_1913)">
<path d="M21.567 9.64391H22.6847C23.5052 9.64391 24.1755 8.98855 24.1996 8.1738C25.0144 8.14965 25.6698 7.47937 25.6698 6.65883V5.54107C25.6698 4.72054 25.0144 4.05017 24.1996 4.02602C24.1755 3.21127 23.5051 2.55591 22.6847 2.55591H21.567C20.7465 2.55591 20.0762 3.21127 20.052 4.02602C19.2373 4.05017 18.5819 4.72054 18.5819 5.54098V6.65875C18.5819 7.47928 19.2373 8.14956 20.052 8.17371C20.0761 8.98855 20.7465 9.64391 21.567 9.64391ZM19.8756 6.65875V5.54107C19.8757 5.48224 19.8991 5.42584 19.9407 5.38425C19.9823 5.34265 20.0387 5.31927 20.0976 5.31922H20.6523C21.0344 5.31922 21.3452 5.00836 21.3452 4.62635V4.07165C21.3452 4.01283 21.3686 3.95644 21.4102 3.91486C21.4518 3.87327 21.5082 3.84987 21.567 3.8498H22.6847C22.7435 3.84987 22.7999 3.87327 22.8415 3.91486C22.8831 3.95644 22.9065 4.01283 22.9065 4.07165V4.62635C22.9065 5.00845 23.2173 5.31922 23.5994 5.31922H24.1541C24.2129 5.31929 24.2693 5.3427 24.311 5.3843C24.3526 5.42591 24.376 5.48232 24.376 5.54115V6.65883C24.376 6.71765 24.3526 6.77404 24.311 6.81563C24.2694 6.85721 24.213 6.88061 24.1542 6.88068H23.5994C23.2173 6.88068 22.9065 7.19154 22.9065 7.57356V8.12825C22.9065 8.18708 22.8831 8.24347 22.8415 8.28508C22.7999 8.32668 22.7435 8.35009 22.6847 8.35019H21.567C21.5082 8.35012 21.4518 8.32672 21.4102 8.28513C21.3686 8.24354 21.3452 8.18716 21.3452 8.12834V7.57364C21.3452 7.19154 21.0343 6.88076 20.6523 6.88076H20.0976C20.0387 6.88067 19.9823 6.85725 19.9407 6.81563C19.8991 6.77401 19.8757 6.71759 19.8756 6.65875Z" fill="#009B97"/>
<path d="M35.0352 28.9533L26.9734 25.9301C26.8698 25.8908 26.7805 25.8211 26.7174 25.73C26.6543 25.639 26.6204 25.5309 26.62 25.4201V22.562C28.5998 21.2424 29.9869 19.1011 30.2898 16.629C31.8265 16.5073 33.0401 15.2187 33.0401 13.6512C33.0401 12.105 31.8594 10.8294 30.3524 10.6783V4.57982C30.3524 3.41962 29.7371 2.32351 28.7468 1.71921L27.1736 0.759207C26.3599 0.262637 25.4252 -5.2641e-05 24.4719 7.91248e-09H19.528C18.5748 -5.2641e-05 17.6401 0.262637 16.8264 0.759207L15.2531 1.71921C14.2628 2.32351 13.6476 3.41962 13.6476 4.57982V10.671C12.0947 10.7761 10.8632 12.0722 10.8632 13.6513C10.8632 15.2518 12.1282 16.5623 13.711 16.6358C14.0156 19.105 15.402 21.2436 17.38 22.562V25.4201C17.3796 25.5309 17.3457 25.639 17.2826 25.73C17.2195 25.8211 17.1302 25.8908 17.0266 25.9301L8.96479 28.9533C6.11514 30.022 4.20056 32.7847 4.20056 35.828V39.8056C4.20056 39.9771 4.26872 40.1417 4.39004 40.263C4.51135 40.3843 4.6759 40.4525 4.84747 40.4525C5.01904 40.4525 5.18358 40.3843 5.3049 40.263C5.42621 40.1417 5.49437 39.9771 5.49437 39.8056V35.828C5.49437 33.3209 7.07161 31.045 9.41901 30.1647L11.9171 29.2279V33.3676C10.8143 33.6551 9.99803 34.6593 9.99803 35.8508C9.99803 37.2657 11.1491 38.4169 12.564 38.4169C13.9789 38.4169 15.13 37.2657 15.13 35.8508C15.13 34.6593 14.3136 33.6551 13.2109 33.3676V28.7427L13.5808 28.604C13.5981 28.6201 13.6163 28.6356 13.6358 28.65L15.2369 29.8378C17.2076 31.2998 19.5462 32.0726 22.0001 32.0726C24.4537 32.0726 26.7925 31.2998 28.7632 29.8378L30.3672 28.6478C30.3858 28.6341 30.4032 28.6195 30.4198 28.6043L31.3151 28.94V32.8269C29.7006 32.9354 28.42 34.2826 28.42 35.9242V41.0476C28.42 41.2192 28.4882 41.3837 28.6095 41.505C28.7308 41.6264 28.8954 41.6945 29.0669 41.6945H30.0521C30.4095 41.6945 30.699 41.4049 30.699 41.0476C30.699 40.6904 30.4095 40.4007 30.0521 40.4007H29.7139V35.9242C29.7139 34.9254 30.5264 34.1128 31.5252 34.1128H32.3252C33.3239 34.1128 34.1365 34.9254 34.1365 35.9242V40.4007H33.8016C33.63 40.4007 33.4655 40.4689 33.3442 40.5902C33.2228 40.7115 33.1547 40.876 33.1547 41.0476C33.1547 41.2192 33.2228 41.3837 33.3442 41.505C33.4655 41.6264 33.63 41.6945 33.8016 41.6945H34.7834C34.955 41.6945 35.1195 41.6264 35.2409 41.505C35.3622 41.3837 35.4303 41.2192 35.4303 41.0476V35.9242C35.4303 34.3077 34.1885 32.9764 32.6089 32.8325V29.4253L34.5809 30.1648C36.9284 31.0451 38.5056 33.321 38.5056 35.8281V42.6784C38.5056 42.6858 38.5027 42.6928 38.4975 42.698C38.4923 42.7032 38.4853 42.7061 38.4779 42.7062H5.52214C5.51478 42.7062 5.50773 42.7032 5.50253 42.698C5.49733 42.6928 5.49439 42.6858 5.49437 42.6784V42.3932C5.49437 42.2216 5.42621 42.0571 5.3049 41.9357C5.18358 41.8144 5.01904 41.7463 4.84747 41.7463C4.6759 41.7463 4.51135 41.8144 4.39004 41.9357C4.26872 42.0571 4.20056 42.2216 4.20056 42.3932V42.6784C4.20056 43.4071 4.79347 44 5.52214 44H38.4778C39.2065 44 39.7993 43.4071 39.7993 42.6784V35.828C39.7993 32.7847 37.8848 30.022 35.0352 28.9533ZM13.8362 35.8508C13.8362 36.5523 13.2655 37.1231 12.564 37.1231C11.8625 37.1231 11.2918 36.5523 11.2918 35.8508C11.2918 35.1493 11.8625 34.5787 12.564 34.5787C13.2655 34.5787 13.8362 35.1493 13.8362 35.8508ZM31.7463 13.6514C31.7463 14.483 31.1436 15.175 30.3524 15.3174V11.9854C31.1436 12.1277 31.7463 12.8198 31.7463 13.6514ZM12.157 13.6514C12.157 12.7862 12.8092 12.0717 13.6475 11.9707V15.3322C12.8092 15.2311 12.157 14.5165 12.157 13.6514ZM14.9414 15.6074V11.9646H18.4858C18.6574 11.9646 18.822 11.8965 18.9433 11.7751C19.0646 11.6538 19.1327 11.4893 19.1327 11.3177C19.1327 11.1461 19.0646 10.9816 18.9433 10.8603C18.822 10.739 18.6574 10.6708 18.4858 10.6708H14.9414V4.57982C14.9414 3.86754 15.3191 3.19458 15.9271 2.82361L17.5004 1.86369C18.111 1.49094 18.8126 1.29376 19.528 1.29381H24.4719C25.1874 1.29377 25.889 1.49095 26.4997 1.86369L28.0729 2.82361C28.6809 3.19458 29.0586 3.86754 29.0586 4.57982V10.6708H21.0735C20.9019 10.6708 20.7373 10.739 20.616 10.8603C20.4947 10.9816 20.4266 11.1461 20.4266 11.3177C20.4266 11.4893 20.4947 11.6538 20.616 11.7751C20.7373 11.8965 20.9019 11.9646 21.0735 11.9646H29.0586V15.6074C29.0586 19.4995 25.8921 22.666 22 22.666C18.1079 22.666 14.9414 19.4995 14.9414 15.6074ZM27.9922 28.7988C26.2462 30.0941 24.174 30.7788 22 30.7788C19.8259 30.7788 17.7538 30.0941 16.0078 28.7988L15.0185 28.0649L17.4807 27.1416C18.1942 26.874 18.6737 26.1823 18.6737 25.4202V23.2681C19.6936 23.7127 20.8183 23.9599 22 23.9599C23.1816 23.9599 24.3064 23.7127 25.3262 23.2681V25.4202C25.3262 26.1823 25.8057 26.874 26.5191 27.1416L28.9814 28.0649L27.9922 28.7988Z" fill="#009B97"/>
</g>
<defs>
<clipPath id="clip0_413_1913">
<rect width="44" height="44" fill="white"/>
</clipPath>
</defs>
</svg>

<svg width="44" height="44" fill="none" xmlns="http://www.w3.org/2000/svg"><g clip-path="url(#clip0_413_1913)" fill="#009B97"><path d="M21.567 9.644h1.118c.82 0 1.49-.655 1.515-1.47a1.517 1.517 0 001.47-1.515V5.54c0-.82-.656-1.49-1.47-1.515a1.517 1.517 0 00-1.515-1.47h-1.118c-.82 0-1.49.655-1.515 1.47a1.518 1.518 0 00-1.47 1.515v1.118c0 .82.655 1.49 1.47 1.515.024.815.695 1.47 1.515 1.47zm-1.691-2.985V5.54a.222.222 0 01.222-.222h.554c.382 0 .693-.31.693-.693v-.554a.222.222 0 01.222-.222h1.118a.222.222 0 01.222.222v.554c0 .382.31.693.692.693h.555a.223.223 0 01.222.222v1.12a.222.222 0 01-.222.222H23.6a.694.694 0 00-.692.693v.554a.222.222 0 01-.222.222h-1.118a.222.222 0 01-.222-.222v-.554a.694.694 0 00-.693-.693h-.554a.222.222 0 01-.222-.222z"/><path d="M35.035 28.953l-8.062-3.023a.548.548 0 01-.353-.51v-2.858a8.362 8.362 0 003.67-5.933 2.992 2.992 0 002.75-2.978 2.992 2.992 0 00-2.688-2.973V4.58a3.37 3.37 0 00-1.605-2.86L27.174.76A5.186 5.186 0 0024.472 0h-4.944c-.953 0-1.888.263-2.702.76l-1.573.96a3.371 3.371 0 00-1.605 2.86v6.091a2.991 2.991 0 00-2.785 2.98c0 1.6 1.265 2.911 2.848 2.985a8.362 8.362 0 003.669 5.926v2.858a.547.547 0 01-.353.51l-8.062 3.023A7.376 7.376 0 004.2 35.828v3.978a.647.647 0 001.293 0v-3.978a6.077 6.077 0 013.925-5.663l2.498-.937v4.14a2.57 2.57 0 00-1.919 2.483 2.569 2.569 0 002.566 2.566 2.569 2.569 0 002.566-2.566 2.57 2.57 0 00-1.92-2.483v-4.625l.37-.139a.632.632 0 00.056.046l1.6 1.188A11.272 11.272 0 0022 32.073a11.27 11.27 0 006.763-2.235l1.604-1.19a.64.64 0 00.053-.044l.895.336v3.887a3.109 3.109 0 00-2.895 3.097v5.124a.647.647 0 00.647.646h.985a.647.647 0 100-1.293h-.338v-4.477c0-.999.812-1.811 1.811-1.811h.8c.999 0 1.811.812 1.811 1.811v4.477h-.334a.647.647 0 000 1.293h.981a.647.647 0 00.647-.646v-5.124a3.11 3.11 0 00-2.821-3.091v-3.408l1.972.74a6.076 6.076 0 013.925 5.663v6.85a.028.028 0 01-.028.028H5.522a.028.028 0 01-.028-.028v-.285a.647.647 0 00-1.293 0v.285c0 .73.592 1.322 1.321 1.322h32.956c.728 0 1.321-.593 1.321-1.322v-6.85a7.376 7.376 0 00-4.764-6.875zm-21.199 6.898c0 .701-.57 1.272-1.272 1.272a1.273 1.273 0 111.272-1.272zm17.91-22.2c0 .832-.602 1.524-1.394 1.666v-3.332a1.696 1.696 0 011.394 1.666zm-19.589 0c0-.865.652-1.58 1.49-1.68v3.361a1.696 1.696 0 01-1.49-1.68zm2.784 1.956v-3.642h3.545a.647.647 0 100-1.294H14.94V4.58c0-.712.378-1.385.986-1.756l1.573-.96a3.89 3.89 0 012.028-.57h4.944c.715 0 1.417.197 2.028.57l1.573.96a2.07 2.07 0 01.986 1.756v6.09h-7.986a.647.647 0 000 1.295h7.986v3.642A7.067 7.067 0 0122 22.666a7.067 7.067 0 01-7.059-7.059zM27.992 28.8A9.987 9.987 0 0122 30.779a9.987 9.987 0 01-5.992-1.98l-.99-.734 2.463-.923a1.847 1.847 0 001.193-1.722v-2.152A8.303 8.303 0 0022 23.96a8.303 8.303 0 003.326-.692v2.152c0 .762.48 1.454 1.193 1.722l2.462.923-.989.734z"/></g><defs><clipPath id="clip0_413_1913"><path fill="#fff" d="M0 0h44v44H0z"/></clipPath></defs></svg>
